libs/icons/src/svg/hashtag.svg

<svg width="16" height="16" viewBox="0 0 16 16" fill="none" xmlns="http://www.w3.org/2000/svg">
<path fill-rule="evenodd" clip-rule="evenodd" d="M7.32597 1.43222C7.38058 1.06811 7.12969 0.728657 6.76557 0.674039C6.40145 0.619422 6.062 0.87032 6.00738 1.23444L5.49255 4.66665H3.33333C2.96514 4.66665 2.66667 4.96513 2.66667 5.33332C2.66667 5.70151 2.96514 5.99999 3.33333 5.99999H5.29255L4.69255 9.99999H2.66667C2.29848 9.99999 2 10.2985 2 10.6667C2 11.0348 2.29848 11.3333 2.66667 11.3333H4.49255L4.00739 14.5678C3.95277 14.9319 4.20367 15.2713 4.56778 15.326C4.9319 15.3806 5.27135 15.1297 5.32597 14.7656L5.8408 11.3333H9.15922L8.67405 14.5678C8.61943 14.9319 8.87033 15.2713 9.23445 15.326C9.59857 15.3806 9.93802 15.1297 9.99263 14.7656L10.5075 11.3333H12.6667C13.0349 11.3333 13.3333 11.0348 13.3333 10.6667C13.3333 10.2985 13.0349 9.99999 12.6667 9.99999H10.7075L11.3075 5.99999H13.3333C13.7015 5.99999 14 5.70151 14 5.33332C14 4.96513 13.7015 4.66665 13.3333 4.66665H11.5075L11.9926 1.43222C12.0472 1.06811 11.7964 0.728657 11.4322 0.674039C11.0681 0.619422 10.7287 0.87032 10.6741 1.23444L10.1592 4.66665H6.8408L7.32597 1.43222ZM9.35922 9.99999L9.95922 5.99999H6.6408L6.0408 9.99999H9.35922Z" fill="#202327"/>
</svg>

<svg xmlns="http://www.w3.org/2000/svg" viewBox="0 0 16 16" class="sageicon"><path fill-rule="evenodd" d="M7.326 1.432a.667.667 0 0 0-1.319-.198l-.514 3.433h-2.16a.667.667 0 0 0 0 1.333h1.96l-.6 4H2.667a.667.667 0 0 0 0 1.333h1.826l-.486 3.235a.667.667 0 0 0 1.319.198l.515-3.433h3.318l-.485 3.235a.667.667 0 0 0 1.319.198l.514-3.433h2.16a.667.667 0 1 0 0-1.333h-1.96l.6-4h2.026a.667.667 0 1 0 0-1.333h-1.825l.485-3.235a.667.667 0 1 0-1.319-.198l-.515 3.433H6.841l.485-3.235ZM9.359 10l.6-4H6.641l-.6 4h3.318Z"/></svg>
